icons/unity-panel/24x24/panel/unity-battery-charged.svg

<?xml version="1.0" encoding="UTF-8" standalone="no"?>
<svg
   viewBox="0 0 24 24"
   version="1.1"
   id="svg6"
   sodipodi:docname="unity-battery-charged.svg"
   inkscape:version="1.1.1 (3bf5ae0d25, 2021-09-20)"
   xmlns:inkscape="http://www.inkscape.org/namespaces/inkscape"
   xmlns:sodipodi="http://sodipodi.sourceforge.net/DTD/sodipodi-0.dtd"
   xmlns="http://www.w3.org/2000/svg"
   xmlns:svg="http://www.w3.org/2000/svg">
  <defs
     id="defs10" />
  <sodipodi:namedview
     id="namedview8"
     pagecolor="#ffffff"
     bordercolor="#666666"
     borderopacity="1.0"
     inkscape:pageshadow="2"
     inkscape:pageopacity="0.0"
     inkscape:pagecheckerboard="0"
     showgrid="false"
     inkscape:zoom="11.083333"
     inkscape:cx="12.045113"
     inkscape:cy="12.045113"
     inkscape:window-width="1298"
     inkscape:window-height="704"
     inkscape:window-x="68"
     inkscape:window-y="27"
     inkscape:window-maximized="1"
     inkscape:current-layer="svg6" />
  <path
     id="path3847-06-9"
     style="display:inline;fill:#ffffff;fill-opacity:1;stroke:none;stroke-width:0.266667"
     d="M 13 3 L 13 4.0136719 C 12.233143 4.0312819 11.596604 4.0921818 11.0625 4.3867188 C 10.68672 4.5937186 10.388509 4.9438125 10.224609 5.3828125 C 10.059703 5.8208135 10 6.342 10 7 L 10 8 L 10 17 L 10 18 C 10 18.658 10.0597 19.179187 10.224609 19.617188 C 10.388509 20.056188 10.68672 20.406281 11.0625 20.613281 C 11.710169 20.970439 12.496101 20.98853 13.5 20.996094 L 13.5 21 L 13.992188 21 L 14 21 L 17 21 L 17.007812 21 L 17.5 21 L 17.5 20.996094 C 18.5039 20.988494 19.289831 20.970434 19.9375 20.613281 C 20.31328 20.406281 20.611491 20.056186 20.775391 19.617188 C 20.9403 19.179174 21 18.658 21 18 L 21 17 L 21 8 L 21 7 C 21 6.342 20.9403 5.8208135 20.775391 5.3828125 C 20.611491 4.9438125 20.31328 4.5937188 19.9375 4.3867188 C 19.403396 4.0921857 18.766858 4.0312839 18 4.0136719 L 18 3 L 13 3 z M 6 4 L 3 13 L 6 13 L 6 20 L 9 11 L 6 11 L 6 4 z M 13.998047 5 L 17.001953 5 C 18.260253 5.015 19.090278 5.05972 19.455078 5.2617188 C 19.638968 5.3617187 19.741903 5.475375 19.839844 5.734375 C 19.936754 5.994375 20 6.40802 20 7 L 20 8 L 20 17 L 20 18 C 20 18.59198 19.93675 19.005625 19.839844 19.265625 C 19.741904 19.524625 19.638968 19.638281 19.455078 19.738281 C 19.090278 19.94028 18.260253 19.985 17.001953 20 L 17 20 L 14 20 L 13.998047 20 C 12.739747 19.985 11.909722 19.94028 11.544922 19.738281 C 11.361032 19.638281 11.258097 19.524625 11.160156 19.265625 C 11.063286 19.005625 11 18.59198 11 18 L 11 17 L 11 8 L 11 7 C 11 6.40802 11.0632 5.994375 11.160156 5.734375 C 11.258096 5.475375 11.361032 5.3617187 11.544922 5.2617188 C 11.909722 5.0597198 12.739747 5.015 13.998047 5 z M 13 6 C 12.446 6 12 6.446 12 7 L 12 18 C 12 18.554 12.446 19 13 19 L 18 19 C 18.554 19 19 18.554 19 18 L 19 7 C 19 6.446 18.554 6 18 6 L 13 6 z " />
</svg>

<svg version="1.1" viewBox="0 0 24 24" xmlns="http://www.w3.org/2000/svg">
 <path d="m13 3v1.0137c-0.76686 0.01761-1.4034 0.07851-1.9375 0.37305-0.37578 0.207-0.67399 0.55709-0.83789 0.99609-0.16491 0.438-0.22461 0.95919-0.22461 1.6172v1 9 1c0 0.658 0.0597 1.1792 0.22461 1.6172 0.1639 0.439 0.46211 0.78909 0.83789 0.99609 0.64767 0.35716 1.4336 0.37525 2.4375 0.38281v0.003906h0.49219 0.007812 3 0.007812 0.49219v-0.003906c1.0039-0.0076 1.7898-0.02566 2.4375-0.38281 0.37578-0.207 0.67399-0.5571 0.83789-0.99609 0.16491-0.43801 0.22461-0.95919 0.22461-1.6172v-1-9-1c0-0.658-0.0597-1.1792-0.22461-1.6172-0.1639-0.439-0.46211-0.78909-0.83789-0.99609-0.5341-0.29453-1.1706-0.35543-1.9375-0.37305v-1.0137h-5zm-7 1-3 9h3v7l3-9h-3v-7zm7.998 1h3.0039c1.2583 0.015 2.0883 0.05972 2.4531 0.26172 0.18389 0.1 0.28682 0.21366 0.38477 0.47266 0.09691 0.26 0.16016 0.67364 0.16016 1.2656v1 9 1c0 0.59198-0.06325 1.0056-0.16016 1.2656-0.09794 0.259-0.20088 0.37266-0.38477 0.47266-0.3648 0.202-1.1948 0.24672-2.4531 0.26172h-0.001953-3-0.001953c-1.2583-0.015-2.0883-0.05972-2.4531-0.26172-0.18389-0.1-0.28682-0.21366-0.38477-0.47266-0.09687-0.26-0.16016-0.67364-0.16016-1.2656v-1-9-1c0-0.59198 0.0632-1.0056 0.16016-1.2656 0.09794-0.259 0.20088-0.37266 0.38477-0.47266 0.3648-0.202 1.1948-0.24672 2.4531-0.26172zm-0.99805 1c-0.554 0-1 0.446-1 1v11c0 0.554 0.446 1 1 1h5c0.554 0 1-0.446 1-1v-11c0-0.554-0.446-1-1-1h-5z" fill="#fff"/>
</svg>
